X:106
T: SO ALLEINE WANDELST DU
N: B0137
O: Europa, Mitteleuropa, Deutschland, Pommern; Brandenburg; Niederrhein
R: Ballade, Romanze
M: 3/4
L: 1/16
K: A
E2E2 | A6E2c2B2 | B4A4z4 |
A3GF2E2D2F2 | F4E4z4 |
B3AG2F2E2D2 | C2E2A4z4 |
c2A2c2A2e3c | c4B4z4 |
e2c2f2d2c3B | B4A4

@@@ Tune index: 1909
